X: 30433
T: the RURAL THOUGHT
C:
%R: jig
B: Elias Howe "The Musician's Companion" Part 3 1844 p.43 #3
S: http://imslp.org/wiki/The_Musician's_Companion_(Howe,_Elias)
S: https://archive.org/stream/firstthirdpartof03howe/#page/66/mode/1up
Z: 2016 John Chambers <jc:trillian.mit.edu>
M: 6/8
L: 1/8
K: G
% - - - - - - - - - - - - - - - - - - - - - - - - -
A |\
d2g d2B | A2G A2B | c2B e2d | dcB B2A |\
d2g d2B | A2G A2B | c2B e2d | cBA G2 :|
|: A |\
d2d c2B | B2B A2G | F2G A2B | c2B B2A |\
d2d c2B | B2B A2G | F2G A2B | cAF G2 :|
|: D |\
D2E D2G | F2A G2B | A2B c2B | B3 A3 |\
D2E D2G | F2A G2B | A2B c2A | G2F G2 :|
|: A |\
d2e d2g | e2f e2g | A2B c2d | c2B A2G |\
d2e d2g | e2f e2g | d2g B2g | A2B G2 :|
% - - - - - - - - - - - - - - - - - - - - - - - - -
